X: 10293
Q: "Not too fast."
M: 6/8
L: 1/8
K: D
f>ed FAd |
{ce}f>ed FAd | f>ed e<Hac | B<ed cHAA |\
d>cd BGd | AFd AFD | d>cd BGd | AFd AFD | FAd dfHa | A>Bc d2 |]


